assets/icons/qvision/phone_bluetooth_speaker.svg

<svg xmlns="http://www.w3.org/2000/svg" height="24" viewBox="0 0 24 24" width="24"><path d="M0 0h24v24H0z" fill="none"/><path d="M14.71 9.5L17 7.21V11h.5l2.85-2.85L18.21 6l2.15-2.15L17.5 1H17v3.79L14.71 2.5l-.71.71L16.79 6 14 8.79l.71.71zM18 2.91l.94.94-.94.94V2.91zm0 4.3l.94.94-.94.94V7.21zm2 8.29c-1.25 0-2.45-.2-3.57-.57-.35-.11-.74-.03-1.02.24l-2.2 2.2c-2.83-1.44-5.15-3.75-6.59-6.59l2.2-2.21c.28-.26.36-.65.25-1C8.7 6.45 8.5 5.25 8.5 4c0-.55-.45-1-1-1H4c-.55 0-1 .45-1 1 0 9.39 7.61 17 17 17 .55 0 1-.45 1-1v-3.5c0-.55-.45-1-1-1z"/></svg>

<svg width="24" height="24" viewBox="0 0 24 24" fill="none" xmlns="http://www.w3.org/2000/svg">
<g clip-path="url(#clip0_147_5989)">
<path d="M14.71 9.5L17 7.21V11H17.5L20.35 8.15L18.21 6L20.36 3.85L17.5 1H17V4.79L14.71 2.5L14 3.21L16.79 6L14 8.79L14.71 9.5ZM18 2.91L18.94 3.85L18 4.79V2.91ZM18 7.21L18.94 8.15L18 9.09V7.21ZM20 15.5C18.75 15.5 17.55 15.3 16.43 14.93C16.08 14.82 15.69 14.9 15.41 15.17L13.21 17.37C10.38 15.93 8.06 13.62 6.62 10.78L8.82 8.57C9.1 8.31 9.18 7.92 9.07 7.57C8.7 6.45 8.5 5.25 8.5 4C8.5 3.45 8.05 3 7.5 3H4C3.45 3 3 3.45 3 4C3 13.39 10.61 21 20 21C20.55 21 21 20.55 21 20V16.5C21 15.95 20.55 15.5 20 15.5Z" fill="#323232"/>
</g>
<defs>
<clipPath id="clip0_147_5989">
<rect width="24" height="24" fill="white"/>
</clipPath>
</defs>
</svg>
